_includes/icons/color-book-stack.svg

<svg fill="#666" height="50" viewBox="0 0 48 48" width="50" xmlns="http://www.w3.org/2000/svg"><path d="m37 10.996094h-22c-2.207031 0-4.816406 1.066406-4.984375 6h-.015625v24c0 3.714844 2.761719 4.003906 3.605469 4.003906l21.394531-.003906h1c2 0 2-2 2-2v-31c0-.550781-.445312-1-1-1z" fill="#3f51b5"/><path d="m37 38.996094h-2v6h1c2 0 2-2 2-2v-4.996094c0 .550781-.445312.996094-1 .996094z" fill="#1a237e"/><path d="m37 3h-22c-2.207031 0-4.816406 1.066406-4.984375 6h-.015625v24c0 3.714844 2.761719 4.003906 3.605469 4.003906l21.394531-.003906h1c2 0 2-2 2-2v-31c0-.554687-.445312-1-1-1z" fill="#ff3d00"/><path d="m35 38.996094h-21.394531c-1.332031 0-1.605469.898437-1.605469 2 0 1.109375.273438 2.003906 1.605469 2.003906l21.394531-.003906z" fill="#ffe0b2"/><path d="m35 31h-21.394531c-1.332031 0-1.605469.894531-1.605469 2s.273438 2.003906 1.605469 2.003906l21.394531-.003906z" fill="#ffe0b2"/><path d="m37 31h-2v6h1c2 0 2-2 2-2v-4.996094c0 .550782-.445312.996094-1 .996094z" fill="#bf360c"/><path d="m13.605469 31c-1.332031 0-1.605469.894531-1.605469 2h23v-2z" fill="#e0b990"/><path d="m13.605469 38.996094c-1.332031 0-1.605469.898437-1.605469 2h23v-2z" fill="#e0b990"/><path d="m15 8.996094h19v5h-19z" fill="#ffecb3"/></svg>

<svg xmlns="http://www.w3.org/2000/svg" viewBox="0 0 48 48" width="50" height="50" fill="#666"><path d="M 37 10.996094 L 15 10.996094 C 12.792969 10.996094 10.183594 12.0625 10.015625 16.996094 L 10 16.996094 C 10 16.996094 10 32.820313 10 40.996094 C 10 44.710938 12.761719 45 13.605469 45 L 35 44.996094 C 35.1875 44.996094 35.5 44.996094 36 44.996094 C 38 44.996094 38 42.996094 38 42.996094 L 38 11.996094 C 38 11.445313 37.554688 10.996094 37 10.996094 Z" fill="#3f51b5"/><path d="M 37 38.996094 L 35 38.996094 L 35 44.996094 C 35.1875 44.996094 35.5 44.996094 36 44.996094 C 38 44.996094 38 42.996094 38 42.996094 L 38 38 C 38 38.550781 37.554688 38.996094 37 38.996094 Z" fill="#1a237e"/><path d="M 37 3 L 15 3 C 12.792969 3 10.183594 4.066406 10.015625 9 L 10 9 C 10 9 10 24.824219 10 33 C 10 36.714844 12.761719 37.003906 13.605469 37.003906 L 35 37 C 35.1875 37 35.5 37 36 37 C 38 37 38 35 38 35 L 38 4 C 38 3.445313 37.554688 3 37 3 Z" fill="#ff3d00"/><path d="M 35 38.996094 L 13.605469 38.996094 C 12.273438 38.996094 12 39.894531 12 40.996094 C 12 42.105469 12.273438 43 13.605469 43 L 35 42.996094 Z" fill="#ffe0b2"/><path d="M 35 31 L 13.605469 31 C 12.273438 31 12 31.894531 12 33 C 12 34.105469 12.273438 35.003906 13.605469 35.003906 L 35 35 Z" fill="#ffe0b2"/><path d="M 37 31 L 35 31 L 35 37 C 35.1875 37 35.5 37 36 37 C 38 37 38 35 38 35 L 38 30.003906 C 38 30.554688 37.554688 31 37 31 Z" fill="#bf360c"/><path d="M 13.605469 31 C 12.273438 31 12 31.894531 12 33 L 35 33 L 35 31 Z" fill="#e0b990"/><path d="M 13.605469 38.996094 C 12.273438 38.996094 12 39.894531 12 40.996094 L 35 40.996094 L 35 38.996094 Z" fill="#e0b990"/><path d="M 15 8.996094 L 34 8.996094 L 34 13.996094 L 15 13.996094 Z" fill="#ffecb3"/></svg>
